contributed-vectors/farm_rpg.svg

<svg width="192" height="192" viewBox="0 0 192 192" fill="none" xmlns="http://www.w3.org/2000/svg">
<g id="FRPG">
<path id="icon edge" d="M96 184C144.601 184 184 144.601 184 96C184 47.3989 144.601 8 96 8C47.3989 8 8 47.3989 8 96C8 144.601 47.3989 184 96 184Z" fill="#98DC9A"/>
<path id="black circle" d="M95.5 175C138.854 175 174 139.854 174 96.5C174 53.1456 138.854 18 95.5 18C52.1456 18 17 53.1456 17 96.5C17 139.854 52.1456 175 95.5 175Z" fill="#56595B"/>
<path id="white circle" d="M95.5 168C134.988 168 167 135.988 167 96.5C167 57.0116 134.988 25 95.5 25C56.0116 25 24 57.0116 24 96.5C24 135.988 56.0116 168 95.5 168Z" fill="white"/>
<path id="sky" d="M95.5 163C132.227 163 162 133.227 162 96.5C162 59.7731 132.227 30 95.5 30C58.7731 30 29 59.7731 29 96.5C29 133.227 58.7731 163 95.5 163Z" fill="url(#paint0_linear_0_1)"/>
<mask id="mask0_0_1" style="mask-type:alpha" maskUnits="userSpaceOnUse" x="29" y="30" width="133" height="133">
<path id="inner ring" d="M95.5 163C132.227 163 162 133.227 162 96.5C162 59.7731 132.227 30 95.5 30C58.7731 30 29 59.7731 29 96.5C29 133.227 58.7731 163 95.5 163Z" fill="#96DFD3"/>
</mask>
<g mask="url(#mask0_0_1)">
<g id="field">
<mask id="mask1_0_1" style="mask-type:alpha" maskUnits="userSpaceOnUse" x="16" y="96" width="159" height="97">
<ellipse id="mask shape" cx="95.5" cy="144.25" rx="79.5" ry="48" fill="#F9DE81"/>
</mask>
<g mask="url(#mask1_0_1)">
<ellipse id="background color" cx="98.5" cy="138" rx="95.5" ry="53" fill="#F9DE81"/>
<ellipse id="Ellipse 1" cx="137.45" cy="136.962" rx="77.3828" ry="39.2427" transform="rotate(-25.0089 137.45 136.962)" fill="#C39A54"/>
<ellipse id="Ellipse 2" cx="145.704" cy="136.867" rx="77.3828" ry="39.2427" transform="rotate(-29.0335 145.704 136.867)" fill="#F9DE81"/>
<ellipse id="Ellipse 3" cx="158.759" cy="137.569" rx="77.3828" ry="39.2427" transform="rotate(-27.5328 158.759 137.569)" fill="#C39A54"/>
<ellipse id="Ellipse 4" cx="154.104" cy="142.826" rx="63.6553" ry="36.704" transform="rotate(-34.9334 154.104 142.826)" fill="#F9DE81"/>
<ellipse id="Ellipse 5" cx="167.172" cy="146.633" rx="64.2647" ry="39.2427" transform="rotate(-34.3449 167.172 146.633)" fill="#C39A54"/>
<ellipse id="Ellipse 6" cx="169.224" cy="148.504" rx="58.2644" ry="36.704" transform="rotate(-40.01 169.224 148.504)" fill="#F9DE81"/>
</g>
</g>
<g id="barn">
<mask id="mask2_0_1" style="mask-type:alpha" maskUnits="userSpaceOnUse" x="63" y="38" width="65" height="62">
<g id="barn mask">
<path d="M63 38H128V66H63V38Z" fill="#D9D9D9"/>
<path d="M65 57H126V100H65V57Z" fill="#D9D9D9"/>
</g>
</mask>
<g mask="url(#mask2_0_1)">
<g id="barn-base">
<rect id="barn-base-bottom" x="63" y="63" width="64" height="44" fill="#FF837D"/>
<path id="barn-base-top" d="M93.1326 38.8508C94.6629 38.3008 96.3371 38.3008 97.8674 38.8508L118.391 46.2265C120.468 46.9731 122.072 48.6558 122.717 50.7667L126.883 64.3878C127.665 66.9431 126.923 69.7205 124.972 71.5463L112.054 83.6353C110.757 84.849 109.047 85.5242 107.271 85.5242H83.7293C81.9531 85.5242 80.2433 84.849 78.9464 83.6353L66.0279 71.5463C64.0768 69.7205 63.3354 66.9431 64.1169 64.3878L68.2828 50.7667C68.9285 48.6558 70.532 46.9731 72.6093 46.2265L93.1326 38.8508Z" fill="#FF837D"/>
</g>
<g id="door">
<rect id="door-frame" x="78" y="75.5" width="35" height="24.5" fill="white"/>
<rect id="door-background" x="81" y="78.5" width="29" height="18.5" fill="#FFD6D4"/>
<g id="door panes">
<path d="M94 78H97V97H94V78Z" fill="white"/>
<path d="M93.8573 76.4252L96.3587 78.0816L82.6787 98.7402L80.1774 97.0839L93.8573 76.4252Z" fill="white"/>
<path d="M95 78.6562L97.5014 77L111.181 97.6591L108.679 99.3154L95 78.6562Z" fill="white"/>
</g>
</g>
<g id="window">
<rect id="window-frame" x="88.5" y="50.5" width="14" height="14" fill="white"/>
<rect id="window-hole" x="92" y="54" width="7" height="7" fill="#56595B"/>
</g>
</g>
<mask id="mask3_0_1" style="mask-type:alpha" maskUnits="userSpaceOnUse" x="51" y="34" width="95" height="34">
<rect id="Roof mask" x="51" y="34" width="95" height="34" fill="#D9D9D9"/>
</mask>
<g mask="url(#mask3_0_1)">
<g id="Roof">
<path d="M69.0024 47.0081L95.5188 36.0935L96.7277 39.0304L70.2113 49.9451L69.0024 47.0081Z" fill="#BA6561"/>
<path d="M95.5 36.0942L122.017 47.0074L120.808 49.9444L94.2913 39.0312L95.5 36.0942Z" fill="#BA6561"/>
<path d="M57.9445 72.9229L69.0041 47.0036L71.9253 48.25L60.8657 74.1694L57.9445 72.9229Z" fill="#BA6561"/>
<path d="M122 47.0037L133.061 72.9226L130.14 74.1692L119.079 48.2503L122 47.0037Z" fill="#BA6561"/>
</g>
</g>
</g>
</g>
</g>
<defs>
<linearGradient id="paint0_linear_0_1" x1="95.5" y1="30" x2="95.5" y2="163" gradientUnits="userSpaceOnUse">
<stop stop-color="#9ABEFF" stop-opacity="0.46"/>
<stop offset="0.375" stop-color="white"/>
</linearGradient>
</defs>
</svg>

<svg xmlns="http://www.w3.org/2000/svg" width="192" height="192" fill="none"><path fill="#98DC9A" d="M96 184c48.601 0 88-39.399 88-88S144.601 8 96 8 8 47.399 8 96s39.399 88 88 88Z"/><path fill="#56595B" d="M95.5 175c43.354 0 78.5-35.146 78.5-78.5S138.854 18 95.5 18 17 53.146 17 96.5 52.146 175 95.5 175Z"/><path fill="#fff" d="M95.5 168c39.488 0 71.5-32.012 71.5-71.5S134.988 25 95.5 25 24 57.012 24 96.5 56.012 168 95.5 168Z"/><path fill="url(#a)" d="M95.5 163c36.727 0 66.5-29.773 66.5-66.5C162 59.773 132.227 30 95.5 30 58.773 30 29 59.773 29 96.5c0 36.727 29.773 66.5 66.5 66.5Z"/><mask id="b" width="133" height="133" x="29" y="30" maskUnits="userSpaceOnUse" style="mask-type:alpha"><path fill="#96DFD3" d="M95.5 163c36.727 0 66.5-29.773 66.5-66.5C162 59.773 132.227 30 95.5 30 58.773 30 29 59.773 29 96.5c0 36.727 29.773 66.5 66.5 66.5Z"/></mask><g mask="url(#b)"><mask id="c" width="159" height="97" x="16" y="96" maskUnits="userSpaceOnUse" style="mask-type:alpha"><ellipse cx="95.5" cy="144.25" fill="#F9DE81" rx="79.5" ry="48"/></mask><g mask="url(#c)"><ellipse cx="98.5" cy="138" fill="#F9DE81" rx="95.5" ry="53"/><ellipse cx="137.45" cy="136.962" fill="#C39A54" rx="77.383" ry="39.243" transform="rotate(-25.009 137.45 136.962)"/><ellipse cx="145.704" cy="136.867" fill="#F9DE81" rx="77.383" ry="39.243" transform="rotate(-29.034 145.704 136.867)"/><ellipse cx="158.759" cy="137.569" fill="#C39A54" rx="77.383" ry="39.243" transform="rotate(-27.533 158.759 137.569)"/><ellipse cx="154.104" cy="142.826" fill="#F9DE81" rx="63.655" ry="36.704" transform="rotate(-34.933 154.104 142.826)"/><ellipse cx="167.172" cy="146.633" fill="#C39A54" rx="64.265" ry="39.243" transform="rotate(-34.345 167.172 146.633)"/><ellipse cx="169.224" cy="148.504" fill="#F9DE81" rx="58.264" ry="36.704" transform="rotate(-40.01 169.224 148.504)"/></g><mask id="d" width="65" height="62" x="63" y="38" maskUnits="userSpaceOnUse" style="mask-type:alpha"><g fill="#D9D9D9"><path d="M63 38h65v28H63V38Z"/><path d="M65 57h61v43H65V57Z"/></g></mask><g mask="url(#d)"><g fill="#FF837D"><path d="M63 63h64v44H63z"/><path d="M93.133 38.85a7 7 0 0 1 4.734 0l20.524 7.377a6.999 6.999 0 0 1 4.326 4.54l4.166 13.62a7 7 0 0 1-1.911 7.16l-12.918 12.088a7 7 0 0 1-4.783 1.89H83.729a7 7 0 0 1-4.783-1.89L66.028 71.546a7 7 0 0 1-1.911-7.158l4.166-13.621a7 7 0 0 1 4.326-4.54l20.524-7.376Z"/></g><path fill="#fff" d="M78 75.5h35V100H78z"/><path fill="#FFD6D4" d="M81 78.5h29V97H81z"/><g fill="#fff"><path d="M94 78h3v19h-3V78Z"/><path d="m93.857 76.425 2.502 1.657-13.68 20.658-2.502-1.656 13.68-20.659Z"/><path d="M95 78.656 97.501 77l13.68 20.66-2.502 1.655L95 78.656Z"/></g><path fill="#fff" d="M88.5 50.5h14v14h-14z"/><path fill="#56595B" d="M92 54h7v7h-7z"/></g><mask id="e" width="95" height="34" x="51" y="34" maskUnits="userSpaceOnUse" style="mask-type:alpha"><path fill="#D9D9D9" d="M51 34h95v34H51z"/></mask><g fill="#BA6561" mask="url(#e)"><path d="M69.002 47.008 95.52 36.093l1.209 2.937L70.21 49.945l-1.209-2.937Z"/><path d="m95.5 36.094 26.517 10.913-1.209 2.937-26.517-10.913 1.209-2.937ZM57.944 72.923l11.06-25.92 2.921 1.247-11.06 25.92-2.92-1.247Z"/><path d="m122 47.004 11.061 25.919-2.921 1.246-11.061-25.919L122 47.004Z"/></g></g><defs><linearGradient id="a" x1="95.5" x2="95.5" y1="30" y2="163" gradientUnits="userSpaceOnUse"><stop stop-color="#9ABEFF" stop-opacity=".46"/><stop offset=".375" stop-color="#fff"/></linearGradient></defs></svg>
